X:13947
T:Ralph and Jean's Reel
R:Reel
C:Bruce Osborne  --  July 1 1998
L:1/16
M:2/4
K:A
ED|CA,CE A2AB|cecB A2GA|BEcE dEcE|BEcE B2ED|
CA,CE A2AB|cecB A2GA|BEcE dEcE|BAGB A2:|
|:cd|efec BAEC|DFAd f2cd|eaga ecAc|BAGA B2cd|
efec BAEC|DFAd f2cd|eaga ecAc|BAGB A2:|
